icons/start.svg

<svg width="24" height="24" viewBox="0 0 24 24" fill="none" stroke="currentColor" stroke-width="2" stroke-linecap="round" stroke-linejoin="round" xmlns="http://www.w3.org/2000/svg">
  <path id="start" d="M11.4127 0L14.1068 8.2918H22.8254L15.7719 13.4164L18.4661 21.7082L11.4127 16.5836L4.35925 21.7082L7.05342 13.4164L-3.8147e-06 8.2918H8.71851L11.4127 0Z" fill="currentColor" />
  </svg>

<svg
  xmlns="http://www.w3.org/2000/svg"
  width="24"
  height="24"
  viewBox="0 0 24 24"
  fill="none"
  stroke="currentColor"
  stroke-width="2"
  stroke-linecap="round"
  stroke-linejoin="round"
>
  <path d="m11.413 0 2.694 8.292h8.718l-7.053 5.124 2.694 8.292-7.053-5.124-7.054 5.124 2.694-8.292L0 8.292h8.719z" />
</svg>
